components/Common/Svg/svgs/targetAudience.svg

<svg width="40" height="40" viewBox="0 0 40 40" fill="none" xmlns="http://www.w3.org/2000/svg">
<path d="M37.6562 36.2438H37.8063V36.0938V30.1562C37.8063 29.5919 38.2638 29.1344 38.8281 29.1344C39.3925 29.1344 39.85 29.5919 39.85 30.1562V37.2656C39.85 37.83 39.3925 38.2875 38.8281 38.2875H31.7188C31.1544 38.2875 30.6969 37.83 30.6969 37.2656C30.6969 36.7013 31.1544 36.2438 31.7188 36.2438H37.6562Z" fill="#161616" stroke="#FFF281" stroke-width="0.3"/>
<path d="M2.19375 36.0938V36.2438H2.34375H8.28125C8.84559 36.2438 9.30313 36.7013 9.30313 37.2656C9.30313 37.83 8.84559 38.2875 8.28125 38.2875H1.17188C0.60753 38.2875 0.15 37.83 0.15 37.2656V30.1562C0.15 29.5919 0.60753 29.1344 1.17188 29.1344C1.73622 29.1344 2.19375 29.5919 2.19375 30.1562V36.0938Z" fill="#161616" stroke="#FFF281" stroke-width="0.3"/>
<path d="M2.34375 3.75625H2.19375V3.90625V9.84375C2.19375 10.4081 1.73622 10.8656 1.17188 10.8656C0.60753 10.8656 0.15 10.4081 0.15 9.84375V2.73438C0.15 2.17003 0.60753 1.7125 1.17188 1.7125H8.28125C8.84559 1.7125 9.30313 2.17003 9.30313 2.73438C9.30313 3.29872 8.84559 3.75625 8.28125 3.75625H2.34375Z" fill="#161616" stroke="#FFF281" stroke-width="0.3"/>
<path d="M37.8063 3.90625V3.75625H37.6562H31.6406C31.0763 3.75625 30.6188 3.29872 30.6188 2.73438C30.6188 2.17003 31.0763 1.7125 31.6406 1.7125H38.8281C39.3925 1.7125 39.85 2.17003 39.85 2.73438V9.84375C39.85 10.4081 39.3925 10.8656 38.8281 10.8656C38.2638 10.8656 37.8063 10.4081 37.8063 9.84375V3.90625Z" fill="#161616" stroke="#FFF281" stroke-width="0.3"/>
<path d="M19.9993 17.2636C22.6784 17.2636 24.858 15.084 24.858 12.4049C24.858 9.72575 22.6784 7.54614 19.9993 7.54614C17.3202 7.54614 15.1406 9.72575 15.1406 12.4049C15.1406 15.084 17.3202 17.2636 19.9993 17.2636ZM19.9993 9.22156C21.7546 9.22156 23.1826 10.6496 23.1826 12.4049C23.1826 14.1601 21.7546 15.5881 19.9993 15.5881C18.2441 15.5881 16.816 14.1601 16.816 12.4049C16.816 10.6496 18.2441 9.22156 19.9993 9.22156Z" fill="#161616"/>
<path d="M29.8294 17.2636C31.5231 17.2636 32.901 15.8856 32.901 14.192C32.901 12.4983 31.5231 11.1204 29.8294 11.1204C28.1357 11.1204 26.7578 12.4983 26.7578 14.192C26.7578 15.8856 28.1357 17.2636 29.8294 17.2636ZM29.8294 12.7958C30.5993 12.7958 31.2256 13.4221 31.2256 14.192C31.2256 14.9618 30.5993 15.5881 29.8294 15.5881C29.0596 15.5881 28.4332 14.9618 28.4332 14.192C28.4332 13.4221 29.0596 12.7958 29.8294 12.7958Z" fill="#161616"/>
<path d="M30.5049 19.1624H29.2092C27.6824 19.1624 26.3644 20.0644 25.7638 21.3601C24.5273 20.0102 22.7512 19.1624 20.7807 19.1624H19.2194C17.2489 19.1624 15.4728 20.0102 14.2362 21.3601C13.6356 20.0644 12.3176 19.1624 10.7908 19.1624H9.49515C7.40423 19.1624 5.70312 20.8532 5.70312 22.9315V29.0306C5.70312 29.9328 6.43997 30.6669 7.3457 30.6669H12.4684C12.5543 31.6665 13.3949 32.454 14.4165 32.454H25.5836C26.6051 32.454 27.4457 31.6665 27.5317 30.6669H32.5958C33.5339 30.6669 34.297 29.9068 34.297 28.9725V22.9315C34.2969 20.8532 32.5958 19.1624 30.5049 19.1624ZM7.37854 22.9315C7.37854 21.777 8.32806 20.8378 9.49515 20.8378H10.7908C11.9579 20.8378 12.9074 21.777 12.9074 22.9315V23.5051C12.3441 24.9719 12.4606 25.8509 12.4606 28.9915H7.37854V22.9315ZM25.864 30.4982C25.864 30.6528 25.7382 30.7786 25.5836 30.7786H14.4165C14.2618 30.7786 14.1361 30.6527 14.1361 30.4982V25.9211C14.1361 23.1181 16.4164 20.8378 19.2193 20.8378H20.7806C23.5836 20.8378 25.864 23.1181 25.864 25.921V30.4982ZM32.6215 28.9725C32.6215 29.0013 32.9338 28.9915 27.5394 28.9915C27.5394 25.8277 27.655 24.9695 27.0926 23.5051V22.9315C27.0926 21.777 28.0421 20.8378 29.2092 20.8378H30.5049C31.672 20.8378 32.6215 21.777 32.6215 22.9315V28.9725Z" fill="#161616"/>
<path d="M10.1693 17.2636C11.8629 17.2636 13.2408 15.8856 13.2408 14.192C13.2408 12.4983 11.8629 11.1204 10.1693 11.1204C8.47557 11.1204 7.09766 12.4983 7.09766 14.192C7.09766 15.8856 8.47557 17.2636 10.1693 17.2636ZM10.1693 12.7958C10.9391 12.7958 11.5654 13.4221 11.5654 14.192C11.5654 14.9618 10.9391 15.5881 10.1693 15.5881C9.3994 15.5881 8.77307 14.9618 8.77307 14.192C8.77307 13.4221 9.3994 12.7958 10.1693 12.7958Z" fill="#161616"/>
</svg>

<svg width="40" height="40" viewBox="0 0 40 40" fill="none" xmlns="http://www.w3.org/2000/svg"><path d="M37.656 36.244h.15v-6.088a1.022 1.022 0 0 1 2.044 0v7.11c0 .564-.458 1.022-1.022 1.022h-7.11a1.022 1.022 0 1 1 0-2.044h5.938ZM2.194 36.094v.15H8.28a1.022 1.022 0 1 1 0 2.044h-7.11A1.022 1.022 0 0 1 .15 37.266v-7.11a1.022 1.022 0 0 1 2.044 0v5.938ZM2.344 3.756h-.15v6.088a1.022 1.022 0 0 1-2.044 0v-7.11c0-.564.458-1.022 1.022-1.022h7.11a1.022 1.022 0 0 1 0 2.044H2.343ZM37.806 3.906v-.15h-6.165a1.022 1.022 0 0 1 0-2.043h7.187c.564 0 1.022.457 1.022 1.021v7.11a1.022 1.022 0 0 1-2.044 0V3.906Z" fill="#161616" stroke="#FFF281" stroke-width=".3"/><path d="M20 17.264c2.678 0 4.858-2.18 4.858-4.86 0-2.678-2.18-4.858-4.859-4.858a4.864 4.864 0 0 0-4.858 4.859c0 2.679 2.18 4.859 4.858 4.859Zm0-8.042a3.187 3.187 0 0 1 3.183 3.183 3.187 3.187 0 0 1-3.184 3.183 3.187 3.187 0 0 1-3.183-3.183 3.187 3.187 0 0 1 3.183-3.183ZM29.83 17.264a3.075 3.075 0 0 0 3.071-3.072 3.075 3.075 0 0 0-3.072-3.072 3.075 3.075 0 0 0-3.071 3.072 3.075 3.075 0 0 0 3.071 3.072Zm0-4.468c.77 0 1.396.626 1.396 1.396a1.398 1.398 0 0 1-2.792 0c0-.77.626-1.396 1.395-1.396ZM30.505 19.162h-1.296a3.798 3.798 0 0 0-3.445 2.198 6.742 6.742 0 0 0-4.983-2.198h-1.562c-1.97 0-3.746.848-4.983 2.198a3.798 3.798 0 0 0-3.445-2.198H9.495c-2.09 0-3.792 1.691-3.792 3.77v6.099c0 .902.737 1.636 1.643 1.636h5.122c.086 1 .927 1.787 1.948 1.787h11.168a1.958 1.958 0 0 0 1.948-1.787h5.064a1.7 1.7 0 0 0 1.701-1.695v-6.04c0-2.079-1.701-3.77-3.792-3.77Zm-23.126 3.77c0-1.155.95-2.094 2.116-2.094h1.296c1.167 0 2.116.939 2.116 2.093v.574c-.563 1.467-.446 2.346-.446 5.486H7.379v-6.06Zm18.485 7.566a.28.28 0 0 1-.28.28H14.416a.28.28 0 0 1-.28-.28v-4.577a5.089 5.089 0 0 1 5.083-5.083h1.562a5.089 5.089 0 0 1 5.083 5.083v4.577Zm6.757-1.526c0 .03.313.02-5.082.02 0-3.164.116-4.023-.446-5.487v-.573c0-1.155.95-2.094 2.116-2.094h1.296c1.167 0 2.116.939 2.116 2.093v6.041ZM10.17 17.264a3.075 3.075 0 0 0 3.07-3.072 3.075 3.075 0 0 0-3.07-3.072 3.075 3.075 0 0 0-3.072 3.072 3.075 3.075 0 0 0 3.071 3.072Zm0-4.468c.77 0 1.395.626 1.395 1.396 0 .77-.626 1.396-1.396 1.396-.77 0-1.396-.626-1.396-1.396 0-.77.626-1.396 1.396-1.396Z" fill="#161616"/></svg>
